!!!COM: Palestrina, Giovanni Perluigi da
!!!OPR: In te Domine speravi (1599)
!!!OTL: Gloria
**kern	**kern	**kern	**kern	**kern	**kern
*Ibass	*Itenor	*Itenor	*Icalto	*Icant	*Icant
!Bassus	!Tenor 2	!Tenor 1	!Altus	!Cantus 2	!Cantus 1
*clefF4	*clefGv2	*clefGv2	*clefG2	*clefG2	*clefG2
*k[]	*k[]	*k[]	*k[]	*k[]	*k[]
*C:ion	*C:ion	*C:ion	*C:ion	*C:ion	*C:ion
*M4/2	*M4/2	*M4/2	*M4/2	*M4/2	*M4/2
=1	=1	=1	=1	=1	=1
0r	1c	0r	1g	1cc	1ee
.	2c	.	2g	2cc	2ee
.	[2f	.	[2a	[2cc	[2ff
=2	=2	=2	=2	=2	=2
0r	2f]	0r	2a]	2cc]	2ff]
.	2c	.	2.g	2cc	2ee
.	1d	.	.	2b	1dd
.	.	.	8f#	.	.
.	.	.	8e	.	.
.	.	.	2f#	2a	.
=3	=3	=3	=3	=3	=3
0r	1c	0r	2g	2cc	1ee
.	.	.	2c	2cc	.
.	2B	.	2d	1g	2dd
.	2c	.	2e	.	2cc
=4	=4	=4	=4	=4	=4
1G	1d	1r	1g	2r	4b
.	.	.	.	.	4cc
.	.	.	.	2gg	4dd
.	.	.	.	.	4b
2A	1r	2r	2.c	2ff	1cc
[2c	.	2g	.	[2ee	.
.	.	.	4c	.	.
=5	=5	=5	=5	=5	=5
4c]	0r	2g	2e	4ee]	0r
4B	.	.	.	4dd	.
4G	.	1g	2d	4b	.
4A	.	.	.	4cc	.
2B	.	.	1g	2dd	.
2c	.	2e	.	[2cc	.
=6	=6	=6	=6	=6	=6
1G	2r	1d	1g	2cc]	2r
.	2G	.	.	2b	2gg
2c	2A	1c	2r	4cc	2ff
.	.	.	.	4dd	.
2C	[2c	.	2g	4ee	[2ee
.	.	.	.	4ff	.
=7	=7	=7	=7	=7	=7
2C	4c]	2r	2g	[0gg	4ee]
.	4B	.	.	.	4dd
1G	4G	2d	1g	.	4b
.	4A	.	.	.	4cc
.	2B	2d	.	.	2dd
2C	2c	[2g	2e	.	[2cc
=8	=8	=8	=8	=8	=8
1G	1G	4g]	1d	1gg]	2cc]
.	.	4g	.	.	.
.	.	2g	.	.	2b
1C	1G	1e	2c	2r	2cc
.	.	.	2c	2ee	2cc
=9	=9	=9	=9	=9	=9
0r	1r	0r	2f	1cc	1a
.	.	.	2a	.	.
.	1G	.	[1g	1dd	1b
=10	=10	=10	=10	=10	=10
1C	1c	1e	1g]	1ee	1cc
2F	2A	1c	1r	1r	1r
2A	[2c	.	.	.	.
=11	=11	=11	=11	=11	=11
1G	4c]	1d	2r	1r	1r
.	8B	.	.	.	.
.	8A	.	.	.	.
.	2B	.	1g	.	.
1C	[1c	[1e	.	2r	2r
.	.	.	2g	[2cc	[2ee
=12	=12	=12	=12	=12	=12
0r	1c]	1e]	4e	2cc]	2ee]
.	.	.	4f	.	.
.	.	.	4g	2cc	2ee
.	.	.	4e	.	.
.	1r	1r	2f	2.a	2.cc
.	.	.	2a	.	.
.	.	.	.	4a	4cc
=13	=13	=13	=13	=13	=13
1r	2r	1r	1g	1b	1dd
.	1g	.	.	.	.
[1C	.	2r	2.e	[1cc	[1ee
.	2g	[2c	.	.	.
.	.	.	4f	.	.
=14	=14	=14	=14	=14	=14
2C]	4e	2c]	1g	1cc]	1ee]
.	4f	.	.	.	.
2C	4g	2c	.	.	.
.	4e	.	.	.	.
2F	2f	4A	1r	1r	1r
.	.	4B	.	.	.
2A	[2e	4c	.	.	.
.	.	4A	.	.	.
=15	=15	=15	=15	=15	=15
0G	2e]	2B	1r	0r	0r
.	4d	1c	.	.	.
.	4c	.	.	.	.
.	1d	.	1g	.	.
.	.	2B	.	.	.
=16	=16	=16	=16	=16	=16
0r	2.e	0c	2g	1ee	2r
.	.	.	2g	.	2cc
.	4f	.	.	.	.
.	1g	.	4e	2ee	2cc
.	.	.	4f	.	.
.	.	.	4g	2ee	2cc
.	.	.	4e	.	.
=17	=17	=17	=17	=17	=17
0r	0r	0r	2f	1cc	4a
.	.	.	.	.	4b
.	.	.	2a	.	4cc
.	.	.	.	.	4a
.	.	.	1g	1dd	2b
.	.	.	.	.	2b
=18	=18	=18	=18	=18	=18
1r	1r	2r	1c	1ee	1cc
.	.	1g	.	.	.
[1G	2r	.	1r	[1dd	[1b
.	[2d	2g	.	.	.
=19	=19	=19	=19	=19	=19
2G]	2d]	1g	1r	2dd]	2b]
2G	2d	.	.	2dd	2b
1G	1d	2.g	2r	1dd	1b
.	.	.	[2g	.	.
.	.	4f	.	.	.
=20	=20	=20	=20	=20	=20
1.c	1.e	4e	2g]	2.ee	1cc
.	.	4d	.	.	.
.	.	4c	2g	.	.
.	.	4d	.	4ff	.
.	.	4e	1g	1gg	1r
.	.	4f	.	.	.
2B	2d	[2g	.	.	.
=21	=21	=21	=21	=21	=21
1A	1c	2g]	1.cc	0r	0r
.	.	2f#	.	.	.
1G	1d	1g	.	.	.
.	.	.	2b	.	.
=22	=22	=22	=22	=22	=22
1.F	2f	1c	1.a	1r	2r
.	4F	.	.	.	2.cc
.	4G	.	.	.	.
.	4A	1c	.	2r	.
.	4B	.	.	.	4cc
2E	[2c	.	2g	2g	2cc
=23	=23	=23	=23	=23	=23
1D	2c]	0r	2f	2a	1.ff
.	2B	.	2d	2b	.
1C	2A	.	2.e	[1cc	.
.	[2G	.	.	.	2ee
.	.	.	4f	.	.
=24	=24	=24	=24	=24	=24
1G	4G]	0r	1g	2cc]	1dd
.	4A	.	.	.	.
.	4B	.	.	2b	.
.	4G	.	.	.	.
1r	2A	.	1r	2a	2cc
.	2B	.	.	[2g	2b
=25	=25	=25	=25	=25	=25
1r	2c	1r	0r	2g]	1a
.	2d	.	.	2f#	.
2r	1e	2r	.	[1g	1g
[2c	.	[2e	.	.	.
=26	=26	=26	=26	=26	=26
4c]	2r	4e]	0r	1g]	0r
4c	.	4e	.	.	.
2c	2.g	2e	.	.	.
2B	.	2d	.	1r	.
.	4g	.	.	.	.
2c	2g	2e	.	.	.
=27	=27	=27	=27	=27	=27
2A	2f	2c	2r	0r	0r
2B	2g	2d	2.g	.	.
2.c	2e	2.e	.	.	.
.	.	.	4g	.	.
.	[2c	.	2g	.	.
4B	.	4d	.	.	.
=28	=28	=28	=28	=28	=28
2A	4c]	2c	2f	0r	0r
.	4A	.	.	.	.
2G	2.d	2B	2g	.	.
1A	.	1c	2e	.	.
.	4c	.	.	.	.
.	[2c	.	2f	.	.
=29	=29	=29	=29	=29	=29
1G	2c]	1d	1g	1r	1r
.	2B	.	.	.	.
[1C	[1c	[1e	1g	2r	2r
.	.	.	.	[2ee	[2cc
=30	=30	=30	=30	=30	=30
1C]	1c]	1e]	2r	4ee]	4cc]
.	.	.	.	4ee	4cc
.	.	.	2.g	2ee	2cc
1r	1r	1r	.	2dd	2b
.	.	.	4g	.	.
.	.	.	2e	2ee	2cc
=31	=31	=31	=31	=31	=31
0r	0r	1r	2f	2cc	2a
.	.	.	2d	2dd	2b
.	.	2r	4c	1ee	1cc
.	.	.	4d	.	.
.	.	[2g	4e	.	.
.	.	.	4f	.	.
=32	=32	=32	=32	=32	=32
0r	0r	4g]	4g	1dd	1b
.	.	4g	4a	.	.
.	.	2g	4b	.	.
.	.	.	4g	.	.
.	.	2f#	2a	1dd	2r
.	.	2g	2b	.	[2gg
=33	=33	=33	=33	=33	=33
0r	0r	2e	2cc	2ee	2gg]
.	.	2f	2.a	2.cc	4ff
.	.	.	.	.	4ee
.	.	1g	.	.	2dd
.	.	.	4g	4b	.
.	.	.	2g	4b	2dd
.	.	.	.	8a	.
.	.	.	.	8g	.
=34	=34	=34	=34	=34	=34
1r	2r	1d	2g	1a	1dd
.	2d	.	2f#	.	.
2r	2e	1r	1g	2g	1b
2G	2g	.	.	2b	.
=35	=35	=35	=35	=35	=35
2A	2f	2r	1r	2cc	0r
1c	4e	2c	.	1ee	.
.	4d	.	.	.	.
.	2c	2e	1g	.	.
2B	2d	2g	.	2dd	.
=36	=36	=36	=36	=36	=36
1A	2.c	2f	2a	0r	1r
.	.	2.e	2cc	.	.
.	4c	.	.	.	.
2G	1d	.	2b	.	2r
.	.	4d	.	.	.
2F	.	[2d	2a	.	2dd
=37	=37	=37	=37	=37	=37
1E	0r	4d]	2.g	1r	2ee
.	.	4c	.	.	.
.	.	2c	.	.	1gg
.	.	.	4a	.	.
1D	.	2d	2b	2r	.
.	.	2d	2a	2dd	2ff
=38	=38	=38	=38	=38	=38
0r	1r	1c	2.cc	2ee	1ee
.	.	.	.	1gg	.
.	.	.	4b	.	.
.	1d	1r	1a	.	1dd
.	.	.	.	2ff	.
=39	=39	=39	=39	=39	=39
0r	2e	0r	1g	2ee	2cc
.	2.g	.	.	1dd	1b
.	.	.	1r	.	.
.	4g	.	.	.	.
.	2a	.	.	2cc	[2a
=40	=40	=40	=40	=40	=40
1r	2.e	2r	0r	1b	2a]
.	.	2.e	.	.	2g#
.	4e	.	.	.	.
2r	1A	.	.	[1a	2a
.	.	4e	.	.	.
[2A	.	2e	.	.	[2cc
=41	=41	=41	=41	=41	=41
4A]	0r	2f	1r	1a]	4cc]
4A	.	.	.	.	4cc
2A	.	2e	.	.	2cc
2B-	.	2d	2r	1r	2dd
2A	.	2e	[2a	.	2cc
=42	=42	=42	=42	=42	=42
4F	0r	2.f	4a]	2r	4a
4G	.	.	4a	.	4b
4A	.	.	2a	2.cc	4cc
4B	.	4f	.	.	4dd
2c	.	2e	2g	.	2ee
.	.	.	.	4cc	.
2A	.	2a	4f	2cc	2ff
.	.	.	4e	.	.
=43	=43	=43	=43	=43	=43
2B-	2r	1g	2d	2dd	2ff
2c	1c	.	2e	2cc	2ee
1F	.	4f	2c	4a	1ff
.	.	4g	.	4b	.
.	2F	4a	2c	4cc	.
.	.	4f	.	4dd	.
=44	=44	=44	=44	=44	=44
0r	2c	2g	1.cc	2ee	0r
.	2F	2a	.	2ff	.
.	1c	1g	.	2ff	.
.	.	.	2cc	2ee	.
=45	=45	=45	=45	=45	=45
0F	2r	1c	1a	1ff	0cc
.	1c	.	.	.	.
.	.	2A	1a	[1ff	.
.	2F	[2c	.	.	.
=46	=46	=46	=46	=46	=46
0C	1.c	4c]	1.g	2ff]	0cc
.	.	4d	.	.	.
.	.	4e	.	4ee	.
.	.	4f	.	4dd	.
.	.	1g	.	1ee	.
.	[2G	.	[2cc	.	.
=47	=47	=47	=47	=47	=47
0G	4G]	1g	2cc]	2dd	1dd
.	4A	.	.	.	.
.	4B	.	4b	2.g	.
.	4c	.	4a	.	.
.	1d	2r	2b	.	[1gg
.	.	.	.	4a	.
.	.	2G	2b	4b	.
.	.	.	.	4cc	.
=48	=48	=48	=48	=48	=48
0D	2r	1A	0a	1dd	2gg]
.	1d	.	.	.	4ff#
.	.	.	.	.	4ee
.	.	1A	.	1dd	1ff#
.	2d	.	.	.	.
=49	=49	=49	=49	=49	=49
0G	2e	2.B	0g	2r	1gg
.	2d	.	.	1dd	.
.	.	4c	.	.	.
.	4B	1d	.	.	1r
.	4c	.	.	.	.
.	4d	.	.	2dd	.
.	4B	.	.	.	.
=50	=50	=50	=50	=50	=50
0r	2c	0r	2r	2ee	0r
.	4B	.	1g	2dd	.
.	4A	.	.	.	.
.	2G	.	.	4b	.
.	.	.	.	4cc	.
.	2B	.	2g	4dd	.
.	.	.	.	4b	.
=51	=51	=51	=51	=51	=51
0r	2A	0r	2a	2cc	2r
.	2B	.	2g	2dd	1g
.	1c	.	4e	1ee	.
.	.	.	4f	.	.
.	.	.	4g	.	2g
.	.	.	4e	.	.
=52	=52	=52	=52	=52	=52
0r	0r	1.d	2f#	0dd	2a
.	.	.	2g	.	1g
.	.	.	1a	.	.
.	.	2d	.	.	2f#
=53	=53	=53	=53	=53	=53
2r	0r	2e	2g	0b	4g
.	.	.	.	.	4a
1G	.	2d	4G	.	4b
.	.	.	4A	.	4cc
.	.	1B	4B	.	1dd
.	.	.	4c	.	.
2G	.	.	4d	.	.
.	.	.	4e	.	.
=54	=54	=54	=54	=54	=54
2A	0r	2c	4f	2r	2cc
.	.	.	4e	.	.
2G	.	2d	2g	1g	2.b
1E	.	1e	1G	.	.
.	.	.	.	.	4g
.	.	.	.	2g	[2cc
=55	=55	=55	=55	=55	=55
2F	0r	2.d	0r	2a	2cc]
2G	.	.	.	2g	2b
.	.	4e	.	.	.
1A	.	1c	.	2e	1cc
.	.	.	.	2f#	.
=56	=56	=56	=56	=56	=56
1G	1r	0d	0r	2g	2.b
.	.	.	.	4g	.
.	.	.	.	4a	4cc
1G	1g	.	.	4b	1dd
.	.	.	.	4cc	.
.	.	.	.	4dd	.
.	.	.	.	4b	.
=57	=57	=57	=57	=57	=57
2A	2f	0r	1r	1cc	1r
1c	1e	.	.	.	.
.	.	.	2r	1g	1gg
2B	2d	.	2g	.	.
=58	=58	=58	=58	=58	=58
1A	4c	0r	2a	1r	2ff
.	4d	.	.	.	.
.	4e	.	1cc	.	1ee
.	4f	.	.	.	.
1G	1g	.	.	2r	.
.	.	.	2b	2g	2dd
=59	=59	=59	=59	=59	=59
0r	0r	1r	1a	2a	2cc
.	.	.	.	1cc	1ee
.	.	2r	2.g	.	.
.	.	2G	.	2b	2dd
.	.	.	4f	.	.
=60	=60	=60	=60	=60	=60
0r	0r	2A	2e	2a	2cc
.	.	2B	2d	1g	2b
.	.	2c	2e	.	1a
.	.	2d	2d	2f#	.
=61	=61	=61	=61	=61	=61
2r	2r	4G	1d	1g	1b
.	.	4A	.	.	.
2G	2g	4B	.	.	.
.	.	8A	.	.	.
.	.	8B	.	.	.
2A	2f	1c	1r	1r	1r
[2c	[2e	.	.	.	.
=62	=62	=62	=62	=62	=62
2c]	2e]	1G	2r	1gg	0r
2B	2d	.	2g	.	.
1A	4c	1r	2a	2ff	.
.	4d	.	.	.	.
.	4e	.	[2cc	[2ee	.
.	4f	.	.	.	.
=63	=63	=63	=63	=63	=63
2r	1g	1r	2cc]	2ee]	1gg
2G	.	.	2b	2dd	.
2A	1r	2r	2a	[1cc	2ff
[2c	.	2c	4g	.	[2ee
.	.	.	4f	.	.
=64	=64	=64	=64	=64	=64
4c]	0r	2e	2g	0cc]	4ee]
4B	.	.	.	.	4dd
4A	.	2.f	1a	.	4cc
4G	.	.	.	.	4b
2F	.	.	.	.	2a
.	.	4e	.	.	.
2A	.	2c	2f	.	[2cc
=65	=65	=65	=65	=65	=65
0G	1r	0d	0g	1r	2cc]
.	.	.	.	.	4b
.	.	.	.	.	4a
.	1G	.	.	2r	1b
.	.	.	.	2gg	.
=66	=66	=66	=66	=66	=66
0r	2A	2c	2r	2ff	[0cc
.	2.c	2c	2g	2.ee	.
.	.	2e	2g	.	.
.	4B	.	.	4dd	.
.	4A	[2f	[2a	4cc	.
.	4G	.	.	4b	.
=67	=67	=67	=67	=67	=67
1r	2F	4f]	2a]	2a	1cc]
.	.	4e	.	.	.
.	2A	2c	2f	1cc	.
2r	1G	1d	1g	.	2r
2G	.	.	.	2b	2gg
=68	=68	=68	=68	=68	=68
2A	1r	[0c	2r	[0cc	2ff
2.c	.	.	2g	.	2.ee
.	[1A	.	2a	.	.
4B	.	.	.	.	4dd
4A	.	.	[2cc	.	4cc
4G	.	.	.	.	4b
=69	=69	=69	=69	=69	=69
1.F	2A]	0c]	4cc]	0cc]	1.a
.	.	.	4b	.	.
.	2F	.	4a	.	.
.	.	.	4g	.	.
.	2A	.	2f	.	.
2E	4c	.	2g	.	2g
.	4B	.	.	.	.
=70	=70	=70	=70	=70	=70
0F	4A	[0c	0a	[0cc	4f
.	4G	.	.	.	4g
.	2F	.	.	.	4a
.	.	.	.	.	4b
.	1f	.	.	.	2cc
.	.	.	.	.	2dd
=71	=71	=71	=71	=71	=71
0C	0e	0c]	0g	0cc]	0ee
=72	=72	=72	=72	=72	=72
0r	1r	0r	1g	0r	0r
.	2r	.	1g	.	.
.	2g	.	.	.	.
=73	=73	=73	=73	=73	=73
2r	1g	0r	2.c	0r	2r
2c	.	.	.	.	2g
.	.	.	4d	.	.
1c	2c	.	2e	.	1g
.	2g	.	2e	.	.
=74	=74	=74	=74	=74	=74
2F	2f	0r	1c	0r	2a
2c	2e	.	.	.	2g
2c	2.g	.	2e	.	2cc
2B	.	.	2d	.	2dd
.	4f	.	.	.	.
=75	=75	=75	=75	=75	=75
2.c	4e	2r	1g	0r	1.ee
.	4c	.	.	.	.
.	1g	2c	.	.	.
4B	.	.	.	.	.
1A	.	1c	1r	.	.
.	2f#	.	.	.	4dd
.	.	.	.	.	4cc
=76	=76	=76	=76	=76	=76
2G	2g	2d	0r	0r	2b
2A	2e	2c	.	.	1cc
2A	2c	2f	.	.	.
2G	2d	2g	.	.	2b
=77	=77	=77	=77	=77	=77
1F	1f	1.a	1r	0r	0cc
2F	1c	.	2r	.	.
4E	.	4g	2cc	.	.
4D	.	4f	.	.	.
=78	=78	=78	=78	=78	=78
0C	2r	2e	1cc	1g	1r
.	2c	2.f	.	.	.
.	1c	.	2c	1g	2r
.	.	8e	.	.	.
.	.	8d	.	.	.
.	.	2e	2g	.	2cc
=79	=79	=79	=79	=79	=79
0r	2F	1c	2f	2a	2.cc
.	2c	.	2e	2g	.
.	.	.	.	.	4dd
.	2c	2r	2.g	2cc	2ee
.	2B	2g	.	2dd	2dd
.	.	.	4f	.	.
=80	=80	=80	=80	=80	=80
0r	2.c	4g	4e	1.ee	1cc
.	.	4f	4c	.	.
.	.	4e	1g	.	.
.	4B	4d	.	.	.
.	1A	1c	.	.	1cc
.	.	.	2f#	4dd	.
.	.	.	.	4cc	.
=81	=81	=81	=81	=81	=81
0r	0G	2d	1g	2b	0r
.	.	2e	.	1cc	.
.	.	1d	2r	.	.
.	.	.	[2g	2b	.
=82	=82	=82	=82	=82	=82
2r	1g	1c	2g]	0cc	2r
1c	.	.	2e	.	1ee
.	2e	1r	2g	.	.
2A	[2f	.	2a	.	2cc
=83	=83	=83	=83	=83	=83
2B	2f]	0r	1g	1r	2dd
2c	2e	.	.	.	2ee
1d	1f	.	2.f	2r	2.a
.	.	.	.	[2ff	.
.	.	.	4g	.	4b
=84	=84	=84	=84	=84	=84
1A	1c	2r	1a	2ff]	4cc
.	.	.	.	.	4b
.	.	1a	.	2ee	4cc
.	.	.	.	.	4dd
1r	1r	.	1r	2cc	2ee
.	.	2f	.	2dd	[2dd
=85	=85	=85	=85	=85	=85
0r	1r	2g	1r	1ee	2dd]
.	.	2a	.	.	2cc#
.	2r	1d	2r	2dd	2dd
.	2G	.	2g	2dd	2b
=86	=86	=86	=86	=86	=86
0r	1G	1d	1g	1dd	1b
.	2A	1r	2e	2cc	2cc
.	2G	.	2g	2b	2dd
=87	=87	=87	=87	=87	=87
1r	2c	0r	2g	2cc	2ee
.	2d	.	2f#	2a	2dd
2r	[1e	.	[1g	1g	4cc
.	.	.	.	.	8a
.	.	.	.	.	8b
2C	.	.	.	.	2cc
=88	=88	=88	=88	=88	=88
1C	2e]	1r	2g]	1cc	1g
.	4d	.	4f	.	.
.	4c	.	4e	.	.
2D	2B	2r	2f	1r	1r
2C	[2c	2g	2e	.	.
=89	=89	=89	=89	=89	=89
2F	2c]	2a	1d	0r	1r
2G	2B	2g	.	.	.
2.A	1c	2e	1c	.	2r
.	.	[2f	.	.	2cc
4B	.	.	.	.	.
=90	=90	=90	=90	=90	=90
1c	1r	2f]	1r	1g	1cc
.	.	4e	.	.	.
.	.	4d	.	.	.
1C	1c	2e	2r	1g	[1cc
.	.	2c	2e	.	.
=91	=91	=91	=91	=91	=91
0r	1.c	4A	2.e	2a	2cc]
.	.	4B	.	.	.
.	.	4c	.	2g	2ee
.	.	4d	4d	.	.
.	.	4e	2c	2cc	2ee
.	.	4c	.	.	.
.	2B	4g	2G	2dd	2dd
.	.	4f	.	.	.
=92	=92	=92	=92	=92	=92
0r	1c	4e	1g	1ee	1cc
.	.	4d	.	.	.
.	.	2c	.	.	.
.	2G	1d	1g	1dd	1b
.	[2G	.	.	.	.
=93	=93	=93	=93	=93	=93
1.G	2G]	2r	2r	1.b	1.dd
.	2G	1d	1g	.	.
.	2.B	.	.	.	.
2G	.	2d	2g	2b	2dd
.	4c	.	.	.	.
=94	=94	=94	=94	=94	=94
0G	2d	1B	2.g	2.b	4dd
.	.	.	.	.	4cc
.	1g	.	.	.	4b
.	.	.	8f	4cc	4a
.	.	.	8e	.	.
.	.	[1g	1d	1dd	1b
.	2f	.	.	.	.
=95	=95	=95	=95	=95	=95
1.c	2e	2g]	1c	1ee	0cc
.	2d	2f	.	.	.
.	2c	2e	1r	1r	.
2B	2d	2d	.	.	.
=96	=96	=96	=96	=96	=96
2A	1e	2c	0r	0r	0r
2G	.	2B	.	.	.
2F	2d	2A	.	.	.
2E	[2c	2G	.	.	.
=97	=97	=97	=97	=97	=97
1D	2c]	1F	1r	1.ff	0r
.	2B	.	.	.	.
1C	4c	[1G	2r	.	.
.	4d	.	.	.	.
.	4e	.	[2cc	2ee	.
.	4f	.	.	.	.
=98	=98	=98	=98	=98	=98
0r	1g	1G]	2cc]	2dd	2r
.	.	.	2b	2dd	1gg
.	1r	1r	2a	[1cc	.
.	.	.	2a	.	2ff
=99	=99	=99	=99	=99	=99
0r	0r	0r	2g	2cc]	2ee
.	.	.	2g	2b	2dd
.	.	.	1c	2a	2cc
.	.	.	.	[2g	2b
=100	=100	=100	=100	=100	=100
2r	0r	1r	1d	2g]	0a
2d	.	.	.	4f#	.
.	.	.	.	4e	.
1d	.	2r	1r	1f#	.
.	.	2d	.	.	.
=101	=101	=101	=101	=101	=101
[0G	0r	1d	0r	2g	1b
.	.	.	.	2dd	.
.	.	4G	.	2dd	2r
.	.	4A	.	.	.
.	.	4B	.	2g	2dd
.	.	4c	.	.	.
=102	=102	=102	=102	=102	=102
1G]	1g	1d	0r	1b	2dd
.	.	.	.	.	2g
1r	2g	1r	.	2dd	2b
.	2c	.	.	2ee	[2cc
=103	=103	=103	=103	=103	=103
0r	2f	0r	0r	1dd	2cc]
.	2g	.	.	.	2b
.	2c	.	.	2ee	2a
.	2e	.	.	[2gg	2g
=104	=104	=104	=104	=104	=104
0r	1d	1r	2r	2gg]	0a
.	.	.	1a	4ff#	.
.	.	.	.	4ee	.
.	2d	2r	.	2ff#	.
.	2f#	[2d	2d	[2dd	.
=105	=105	=105	=105	=105	=105
0r	2f#	2d]	2a	2dd]	0r
.	1g	2G	2b	2dd	.
.	.	2c	2cc	2ee	.
.	2f	2d	4b	4dd	.
.	.	.	4a	4cc	.
=106	=106	=106	=106	=106	=106
0r	1d	4G	1g	2b	1r
.	.	4A	.	.	.
.	.	2B	.	1dd	.
.	1e	1A	[1a	.	1ee
.	.	.	.	2cc#	.
=107	=107	=107	=107	=107	=107
2r	2r	1d	2a]	1dd	2ff#
1G	1d	.	1g	.	2.gg
.	.	2B	.	1r	.
.	.	.	.	.	4ff
2C	2e	[2c	2g	.	2ee
=108	=108	=108	=108	=108	=108
2F	2f	2c]	2a	0r	1dd
2G	2d	2B	4g	.	.
.	.	.	4f	.	.
2C	4c	1G	2e	.	2ee
.	4B	.	.	.	.
2E	4A	.	[2g	.	2cc
.	4G	.	.	.	.
=109	=109	=109	=109	=109	=109
1D	1A	2.d	2g]	1r	1dd
.	.	.	2f#	.	.
.	.	4c	.	.	.
2r	1G	2B	1g	2r	2r
[2C	.	[2c	.	[2ee	[2cc
=110	=110	=110	=110	=110	=110
2C]	2r	2c]	1.g	2ee]	2cc]
2C	1e	2c	.	2ee	2cc
[1C	.	1c	.	[1ee	2cc
.	2e	.	2g	.	2g
=111	=111	=111	=111	=111	=111
0C]	0e	2r	1g	1ee]	2.cc
.	.	2G	.	.	.
.	.	.	.	.	4dd
.	.	[1c	2r	1r	[1ee
.	.	.	2c	.	.
=112	=112	=112	=112	=112	=112
0r	1r	2c]	1.g	2r	2ee]
.	.	2B	.	2g	2dd
.	1c	1A	.	[1cc	2ee
.	.	.	2f	.	2a
=113	=113	=113	=113	=113	=113
0r	1.g	1G	2e	2cc]	1r
.	.	.	1d	2b	.
.	.	1d	.	1a	1dd
.	2f	.	2a	.	.
=114	=114	=114	=114	=114	=114
2r	4e	2r	2b	1g	1ee
.	4f	.	.	.	.
2C	4g	2c	2cc	.	.
.	4e	.	.	.	.
[1F	1f	2c	[1a	1r	1cc
.	.	4F	.	.	.
.	.	4G	.	.	.
=115	=115	=115	=115	=115	=115
2F]	1c	4A	2a]	0r	1.ff
.	.	4B	.	.	.
2E	.	2.c	2g	.	.
2D	2r	.	1f	.	.
.	.	8B	.	.	.
.	.	8A	.	.	.
2D	2d	2B	.	.	2ff
=116	=116	=116	=116	=116	=116
1C	1.g	2.c	1r	2r	1ee
.	.	.	.	2g	.
.	.	4B	.	.	.
1r	.	2A	1c	1cc	1r
.	2f	2A	.	.	.
=117	=117	=117	=117	=117	=117
1r	2e	1G	0g	2cc	2r
.	2d	.	.	2b	2g
1C	1c	2r	.	2ee	1cc
.	.	2c	.	2ee	.
=118	=118	=118	=118	=118	=118
1G	1r	1d	1.g	1dd	2cc
.	.	.	.	.	2b
2C	2r	2e	.	1r	2a
2D	2d	2d	2f	.	2a
=119	=119	=119	=119	=119	=119
2E	1g	2B	2e	1r	2.g
2C	.	2c	2e	.	.
.	.	.	.	.	4a
1G	2g	1d	1d	1dd	4b
.	.	.	.	.	4cc
.	2f	.	.	.	[2dd
=120	=120	=120	=120	=120	=120
0r	2e	0r	2r	1gg	2dd]
.	2e	.	2g	.	2cc#
.	1d	.	2a	2gg	1dd
.	.	.	2b	2ff	.
=121	=121	=121	=121	=121	=121
1r	0g	1c	2cc	2ee	2r
.	.	.	1cc	2ee	2.g
[1G	.	1G	.	[1dd	.
.	.	.	.	.	4a
.	.	.	4b	.	4b
.	.	.	4a	.	4cc
=122	=122	=122	=122	=122	=122
1G]	2d	2.g	1b	1dd]	2dd
.	2.g	.	.	.	2b
.	.	4f	.	.	.
1C	.	4e	1g	1ee	1cc
.	4f	4d	.	.	.
.	4e	4c	.	.	.
.	4d	4B	.	.	.
=123	=123	=123	=123	=123	=123
1F	4c	4A	1a	1ff	1cc
.	4B	4B	.	.	.
.	2A	2c	.	.	.
1G	[1d	1B	2.g	1dd	2r
.	.	.	.	.	2g
.	.	.	8f#	.	.
.	.	.	8e	.	.
=124	=124	=124	=124	=124	=124
0D	0d]	0A	0f#	0dd	1a
.	.	.	.	.	1a
=125	=125	=125	=125	=125	=125
0G	0d	1G	1g	2dd	0b
.	.	.	.	2g	.
.	.	1r	2r	2.dd	.
.	.	.	2d	.	.
.	.	.	.	4cc	.
=126	=126	=126	=126	=126	=126
0r	0r	2r	1g	1b	0r
.	.	2G	.	.	.
.	.	2d	2f	2a	.
.	.	2c	[2a	[2cc	.
=127	=127	=127	=127	=127	=127
0r	0r	2e	4a]	4cc]	2r
.	.	.	4g	4b	.
.	.	2e	4g	4b	2g
.	.	.	8f	8a	.
.	.	.	8e	8g	.
.	.	2d	4f	1a	2dd
.	.	.	4g	.	.
.	.	2f	[2a	.	2cc
=128	=128	=128	=128	=128	=128
0r	1r	2e	4a]	2b	2ee
.	.	.	4g	.	.
.	.	2c	1g	2cc	2ee
.	2r	2.d	.	1a	[1dd
.	[2d	.	2f#	.	.
.	.	4c	.	.	.
=129	=129	=129	=129	=129	=129
2r	2d]	2B	1g	1g	2dd]
2C	2e	2c	.	.	2cc
2G	2d	1d	1r	1r	2b
2F	[2f	.	.	.	[2a
=130	=130	=130	=130	=130	=130
2A	4f]	1c	2r	0r	4a]
.	4e	.	.	.	4b
2A	4e	.	2c	.	4cc
.	8d	.	.	.	4a
.	8c	.	.	.	.
2G	1d	1r	2g	.	2b
2B-	.	.	2f	.	[2dd
=131	=131	=131	=131	=131	=131
2A	2e	1r	2a	0r	4dd]
.	.	.	.	.	4cc
2F	2f	.	2a	.	1cc
2.G	1d	2r	1g	.	.
.	.	2G	.	.	2b
4F	.	.	.	.	.
=132	=132	=132	=132	=132	=132
2E	1c	2G	2r	2r	[0cc
2F	.	2A	2f	2a	.
1C	1r	1c	2f	2a	.
.	.	.	2e	2g	.
=133	=133	=133	=133	=133	=133
0r	1r	0r	2f	2a	0cc]
.	.	.	2c	2e	.
.	2r	.	2e	2g	.
.	2f	.	2f	2a	.
=134	=134	=134	=134	=134	=134
0r	2f	2r	1c	[0g	2r
.	2e	2c	.	.	2ee
.	2c	2c	2r	.	2ee
.	2d	2B	2g	.	2dd
=135	=135	=135	=135	=135	=135
1r	2c	2c	2e	1g]	2ee
.	2d	2G	1d	.	2b
2r	2G	2B	.	2r	2dd
2c	2g	2c	2c	2ee	2ee
=136	=136	=136	=136	=136	=136
2c	1g	1G	2r	2ee	2.gg
2B	.	.	2d	2dd	.
.	.	.	.	.	4ff
2c	2r	1r	2c	2ee	2ee
2G	[2g	.	2d	2b	[2dd
=137	=137	=137	=137	=137	=137
2B	4g]	2r	2G	2dd	2dd]
.	4f	.	.	.	.
2c	2e	2c	2.g	2ee	1cc
2G	1d	2d	.	1gg	.
.	.	.	4f	.	.
2G	.	[2g	2d	.	2b
=138	=138	=138	=138	=138	=138
1C	0c	2g]	1e	1ee	1cc
.	.	2e	.	.	.
1F	.	2.A	1f	[1cc	2r
.	.	.	.	.	2a
.	.	4B	.	.	.
=139	=139	=139	=139	=139	=139
2F	0r	0c	0r	0cc]	2a
2E	.	.	.	.	2g
2F	.	.	.	.	2a
2C	.	.	.	.	2e
=140	=140	=140	=140	=140	=140
2E	0r	0c	2r	2r	2g
2F	.	.	2f	2a	2a
1C	.	.	2f	2a	[1cc
.	.	.	2e	2g	.
=141	=141	=141	=141	=141	=141
0r	2r	0r	2f	2a	0cc]
.	2g	.	2c	2e	.
.	2g	.	2e	2g	.
.	2f	.	2f	2a	.
=142	=142	=142	=142	=142	=142
0r	2.e	2r	1c	[0g	2r
.	.	2c	.	.	2ee
.	4d	.	.	.	.
.	2c	2c	2r	.	2ee
.	2d	2B	2g	.	2dd
=143	=143	=143	=143	=143	=143
1r	2c	2c	2e	1g]	2ee
.	2d	2G	1d	.	2b
2r	2G	2B	.	2r	2dd
2c	2g	2c	2c	2ee	2ee
=144	=144	=144	=144	=144	=144
2c	1g	1G	2r	2ee	2.gg
2B	.	.	2d	2dd	.
.	.	.	.	.	4ff
2c	2r	1r	2c	2ee	2ee
2G	[2g	.	2d	2b	[2dd
=145	=145	=145	=145	=145	=145
2B	4g]	2r	2G	2dd	2dd]
.	4f	.	.	.	.
2c	2e	2c	2.g	2ee	1cc
2G	1d	2d	.	2.gg	.
.	.	.	4f	.	.
2G	.	2g	2d	.	2b
.	.	.	.	4ff	.
=146	=146	=146	=146	=146	=146
1C	2.c	4g	1e	4ee	[0cc
.	.	4f	.	4dd	.
.	.	4e	.	2ee	.
.	4B	4d	.	.	.
[1F	4A	4c	[1a	[1ff	.
.	4G	4B	.	.	.
.	4F	[2A	.	.	.
.	4G	.	.	.	.
=147	=147	=147	=147	=147	=147
0F]	2.A	2A]	0a]	0ff]	1cc_
.	.	2F	.	.	.
.	4B	.	.	.	.
.	2c	2.A	.	.	1cc_
.	2d	.	.	.	.
.	.	4B	.	.	.
=148	=148	=148	=148	=148	=148
0C	0e	0c	0g	0ee	0cc]
==	==	==	==	==	==
*-	*-	*-	*-	*-	*-
!!!CDT: 1525/^1526/-1594/2/2
!!!OCY: Italia
!!!AGN: Mass (Parody)
!!!AST: renaissance, vocal
!!!ASW: Motet 1532 (Lupus Hellinck)
!!!PWK: Masses, Book 9
!!!RNB: Cadence finals: G,D
!!!YOR: Le Opere Complete, v. 25, p. 131
!!!YOO: Rome, Italy: Fratelli Scalera
!!!END: 1992//
!!!EED: John Miller
!!!YEC: Copyright 2000, John Miller
!!!YEN: United States of America
!!!YEM: Rights to all derivative electronic formats reserved.
!!!YEM: Refer to licensing agreement for further details.
!!!YEM: This file must be accompanied by the licensing agreement.
!!!YEM: A copy of the licensing agreement may be found at http://www.music-cog.ohio-state.edu/HumdrumDatabases/Palestrina/license.txt
!!!EMD: converted to Humdrum by Bret Aarden
